img/dribbble.svg

<svg xmlns="http://www.w3.org/2000/svg" xmlns:xlink="http://www.w3.org/1999/xlink" preserveAspectRatio="xMidYMid" width="18" height="18.375" viewBox="0 0 18 18.375">
  <defs>
    <style>
      .cls-1 {
        fill: #182a33;
        fill-rule: evenodd;
      }
    </style>
  </defs>
  <path d="M8.571,6.620 C7.243,4.210 5.821,2.245 5.717,2.100 C3.574,3.134 1.974,5.150 1.474,7.577 C1.676,7.581 4.881,7.620 8.571,6.620 ZM9.528,9.255 C9.628,9.222 9.730,9.191 9.830,9.161 C9.638,8.715 9.427,8.268 9.207,7.827 C5.249,9.037 1.451,8.949 1.317,8.945 C1.314,9.029 1.310,9.111 1.310,9.195 C1.310,11.210 2.056,13.048 3.282,14.437 L3.277,14.431 C3.277,14.431 5.381,10.624 9.528,9.255 ZM4.272,15.376 L4.272,15.372 C4.216,15.327 4.155,15.286 4.098,15.237 C4.202,15.322 4.272,15.376 4.272,15.376 ZM7.155,1.580 C7.149,1.582 7.141,1.584 7.141,1.584 C7.147,1.582 7.155,1.582 7.155,1.582 L7.155,1.580 ZM14.074,3.309 C12.720,2.093 10.944,1.352 8.997,1.352 C8.372,1.352 7.766,1.430 7.185,1.572 C7.302,1.732 8.745,3.687 10.059,6.148 C12.957,5.041 14.052,3.341 14.074,3.309 ZM8.997,18.376 C4.027,18.376 -0.003,14.265 -0.003,9.195 C-0.004,4.122 4.026,0.011 8.997,0.011 C13.969,0.011 17.998,4.122 17.998,9.195 C17.998,14.265 13.969,18.376 8.997,18.376 ZM10.304,10.477 C5.793,12.081 4.303,15.306 4.272,15.372 C5.577,16.411 7.213,17.035 8.996,17.035 C10.060,17.035 11.075,16.814 11.996,16.415 C11.883,15.727 11.436,13.325 10.354,10.459 C10.338,10.465 10.321,10.471 10.304,10.477 ZM10.650,7.317 C10.830,7.690 11.000,8.070 11.162,8.454 C11.220,8.589 11.273,8.726 11.328,8.859 C13.983,8.518 16.597,9.097 16.683,9.115 C16.664,7.256 16.012,5.550 14.935,4.212 C14.917,4.235 13.683,6.052 10.650,7.317 ZM11.796,10.097 C12.805,12.927 13.214,15.229 13.292,15.697 C15.018,14.509 16.245,12.623 16.586,10.437 C16.433,10.388 14.281,9.692 11.796,10.097 Z" class="cls-1"/>
</svg>

<svg xmlns="http://www.w3.org/2000/svg" width="18" height="18.375" preserveAspectRatio="xMidYMid"><defs><style>.cls-1 { fill: #182a33; fill-rule: evenodd; }</style></defs><path d="M8.57 6.62C7.24 4.22 5.82 2.24 5.72 2.1 3.57 3.13 1.97 5.15 1.47 7.58c.2 0 3.4.04 7.1-.96zm.96 2.64c.1-.04.2-.07.3-.1-.2-.45-.4-.9-.62-1.33-3.95 1.2-7.75 1.12-7.88 1.12 0 .08 0 .16 0 .25 0 2 .74 3.85 1.96 5.24 0 0 2.1-3.82 6.25-5.18zm-5.26 6.12c-.05-.05-.1-.1-.17-.14.1.08.17.14.17.14zm2.9-13.8c-.02 0-.03 0-.03 0s.02 0 .02 0zm6.9 1.73C12.72 2.1 10.94 1.36 9 1.36c-.63 0-1.23.08-1.82.22.12.16 1.56 2.12 2.88 4.58 2.9-1.1 4-2.8 4-2.84zM9 18.4c-4.97 0-9-4.1-9-9.18S4.03 0 9 0s9 4.12 9 9.2c0 5.07-4.03 9.18-9 9.18zm1.3-7.9c-4.5 1.6-6 4.83-6.03 4.9C5.57 16.4 7.2 17.02 9 17.02c1.06 0 2.07-.22 3-.62-.12-.67-.56-3.07-1.65-5.94 0 0-.03 0-.05.02zm.35-3.16c.18.37.35.75.5 1.13.07.14.12.28.18.4 2.65-.33 5.27.25 5.35.27-.02-1.86-.67-3.57-1.74-4.9-.02.02-1.26 1.83-4.3 3.1zm1.15 2.78c1 2.83 1.4 5.13 1.5 5.6 1.72-1.2 2.95-3.08 3.3-5.26-.17-.05-2.32-.75-4.8-.34z" class="cls-1"/></svg>
